X:16
T:Tobin's Favorite
R:jig
O:Ireland
M:6/8
L:1/8
K:D
A/F/ | "D" DFA dcd | "A" ecA      cde | "D" fdf    {a}"G"gfg | "A" ecA "(G)" GEF |
       "D" DFA dcd | "A" ecA      efg | "D" (f/g/a)f "A" gec | "D" edc        d2 :|
d    | "D" dfa agf | "A" (e/f/g)e efg | "D" fdf    {a}"G"gfg | "A" ecA "(G)" GEF |
       "D" DFA dcd | "A" ecA      efg | "D" (f/g/a)f "A" gec | "D" edc        d2 :|
